assets/fill/folder-plus-fill.svg

<svg id="Flat" xmlns="http://www.w3.org/2000/svg" viewBox="0 0 256 256">
  <path d="M215.99512,71.99805h-84.6875l-27.3125-27.3125a15.8907,15.8907,0,0,0-11.3125-4.6875H39.99512a16.01581,16.01581,0,0,0-16,16V200.61523a15.404,15.404,0,0,0,15.39062,15.38282h177.5a15.13062,15.13062,0,0,0,15.10938-15.10938V87.99805A16.01582,16.01582,0,0,0,215.99512,71.99805Zm-176-16h52.6875l16,16H39.99512Zm112,96.00195h-16v16a8,8,0,1,1-16,0V152h-16a8,8,0,1,1,0-16h16V120a8,8,0,1,1,16,0v16h16a8,8,0,0,1,0,16Z"/>
</svg>

<svg xmlns="http://www.w3.org/2000/svg" viewBox="0 0 256 256"><path d="M216,72H131.3L104,44.7A15.9,15.9,0,0,0,92.7,40H40A16,16,0,0,0,24,56V200.6A15.4,15.4,0,0,0,39.4,216H216.9A15.2,15.2,0,0,0,232,200.9V88A16,16,0,0,0,216,72ZM40,56H92.7l16,16H40Zm112,96H136v16a8,8,0,0,1-16,0V152H104a8,8,0,0,1,0-16h16V120a8,8,0,0,1,16,0v16h16a8,8,0,0,1,0,16Z"/></svg>
